nestor-share/share.svg

<?xml version="1.0" encoding="UTF-8" standalone="no"?>
<!-- Created with Inkscape (http://www.inkscape.org/) -->

<svg
   xmlns:dc="http://purl.org/dc/elements/1.1/"
   xmlns:cc="http://creativecommons.org/ns#"
   xmlns:rdf="http://www.w3.org/1999/02/22-rdf-syntax-ns#"
   xmlns:svg="http://www.w3.org/2000/svg"
   xmlns="http://www.w3.org/2000/svg"
   xmlns:sodipodi="http://sodipodi.sourceforge.net/DTD/sodipodi-0.dtd"
   xmlns:inkscape="http://www.inkscape.org/namespaces/inkscape"
   width="35.433071"
   height="35.433071"
   id="svg2"
   version="1.1"
   inkscape:version="0.48.4 r9939"
   sodipodi:docname="share.svg">
  <defs
     id="defs4">
    <linearGradient
       id="linearGradient5256">
      <stop
         style="stop-color:#acacac;stop-opacity:1;"
         offset="0"
         id="stop5258" />
      <stop
         style="stop-color:#acacac;stop-opacity:0.99342108;"
         offset="1"
         id="stop5260" />
    </linearGradient>
    <linearGradient
       id="linearGradient3798">
      <stop
         style="stop-color:#acacac;stop-opacity:1;"
         offset="0"
         id="stop3800" />
      <stop
         style="stop-color:#acacac;stop-opacity:0.68421054;"
         offset="1"
         id="stop3802" />
    </linearGradient>
  </defs>
  <sodipodi:namedview
     id="base"
     pagecolor="#ffffff"
     bordercolor="#666666"
     borderopacity="1.0"
     inkscape:pageopacity="0.0"
     inkscape:pageshadow="2"
     inkscape:zoom="22.86"
     inkscape:cx="11.176728"
     inkscape:cy="17.716536"
     inkscape:document-units="px"
     inkscape:current-layer="layer2"
     showgrid="true"
     units="cm"
     inkscape:window-width="1920"
     inkscape:window-height="1015"
     inkscape:window-x="0"
     inkscape:window-y="28"
     inkscape:window-maximized="1">
    <inkscape:grid
       type="xygrid"
       id="grid2985"
       empspacing="5"
       visible="true"
       enabled="true"
       snapvisiblegridlinesonly="true"
       units="cm"
       spacingx="0.0125cm"
       spacingy="0.0125cm"
       originx="0cm"
       originy="0cm"
       dotted="false" />
  </sodipodi:namedview>
  <metadata
     id="metadata7">
    <rdf:RDF>
      <cc:Work
         rdf:about="">
        <dc:format>image/svg+xml</dc:format>
        <dc:type
           rdf:resource="http://purl.org/dc/dcmitype/StillImage" />
        <dc:title />
      </cc:Work>
    </rdf:RDF>
  </metadata>
  <g
     inkscape:groupmode="layer"
     id="layer2"
     inkscape:label="Calque">
    <path
       inkscape:connector-curvature="0"
       style="fill:#acacac;fill-opacity:1;stroke:none"
       d="m 27.46875,5.3125001 c -2.330311,0 -4.230589,1.8084717 -4.40625,4.09375 L 10.84375,14.375 c -0.776032,-0.669812 -1.7694392,-1.09375 -2.875,-1.09375 -2.4461431,0 -4.4375,1.991356 -4.4375,4.4375 0,2.446143 1.9913569,4.4375 4.4375,4.4375 1.078146,0 2.044433,-0.422187 2.8125,-1.0625 l 12.3125,5.34375 c 0.352636,2.093334 2.181385,3.6875 4.375,3.6875 2.446144,0 4.40625,-1.991357 4.40625,-4.4375 0,-2.446143 -1.960106,-4.4375 -4.40625,-4.4375 -1.23866,0 -2.352444,0.524157 -3.15625,1.34375 L 13.125,17.75 24.59375,13.0625 c 0.776374,0.671156 1.7682,1.125 2.875,1.125 2.446144,0 4.40625,-1.991357 4.40625,-4.4374999 0,-2.4461431 -1.960106,-4.4375 -4.40625,-4.4375 z"
       id="path2990-2" />
  </g>
</svg>

<?xml version="1.0" encoding="UTF-8" standalone="no"?>
<!-- Created with Inkscape (http://www.inkscape.org/) -->

<svg
   xmlns:dc="http://purl.org/dc/elements/1.1/"
   xmlns:cc="http://creativecommons.org/ns#"
   xmlns:rdf="http://www.w3.org/1999/02/22-rdf-syntax-ns#"
   xmlns:svg="http://www.w3.org/2000/svg"
   xmlns="http://www.w3.org/2000/svg"
   xmlns:sodipodi="http://sodipodi.sourceforge.net/DTD/sodipodi-0.dtd"
   xmlns:inkscape="http://www.inkscape.org/namespaces/inkscape"
   width="35.433071"
   height="35.433071"
   id="svg2"
   version="1.1"
   inkscape:version="0.48.4 r9939"
   sodipodi:docname="share.svg">
  <defs
     id="defs4">
    <linearGradient
       id="linearGradient5256">
      <stop
         style="stop-color:#acacac;stop-opacity:1;"
         offset="0"
         id="stop5258" />
      <stop
         style="stop-color:#acacac;stop-opacity:0.99342108;"
         offset="1"
         id="stop5260" />
    </linearGradient>
    <linearGradient
       id="linearGradient3798">
      <stop
         style="stop-color:#acacac;stop-opacity:1;"
         offset="0"
         id="stop3800" />
      <stop
         style="stop-color:#acacac;stop-opacity:0.68421054;"
         offset="1"
         id="stop3802" />
    </linearGradient>
  </defs>
  <sodipodi:namedview
     id="base"
     pagecolor="#ffffff"
     bordercolor="#666666"
     borderopacity="1.0"
     inkscape:pageopacity="0.0"
     inkscape:pageshadow="2"
     inkscape:zoom="22.86"
     inkscape:cx="17.716536"
     inkscape:cy="17.716536"
     inkscape:document-units="px"
     inkscape:current-layer="layer1"
     showgrid="true"
     units="cm"
     inkscape:window-width="1920"
     inkscape:window-height="1016"
     inkscape:window-x="0"
     inkscape:window-y="27"
     inkscape:window-maximized="1">
    <inkscape:grid
       type="xygrid"
       id="grid2985"
       empspacing="5"
       visible="true"
       enabled="true"
       snapvisiblegridlinesonly="true"
       units="cm"
       spacingx="0.0125cm"
       spacingy="0.0125cm"
       originx="0cm"
       originy="0cm"
       dotted="false" />
  </sodipodi:namedview>
  <metadata
     id="metadata7">
    <rdf:RDF>
      <cc:Work
         rdf:about="">
        <dc:format>image/svg+xml</dc:format>
        <dc:type
           rdf:resource="http://purl.org/dc/dcmitype/StillImage" />
        <dc:title />
      </cc:Work>
    </rdf:RDF>
  </metadata>
  <g
     inkscape:label="Calque 1"
     inkscape:groupmode="layer"
     id="layer1"
     transform="translate(0,-1016.9291)">
    <path
       style="fill:#acacac;fill-opacity:1;stroke:none"
       d="M 27.46875 5.3125 C 25.138439 5.3125 23.238161 7.1209717 23.0625 9.40625 L 10.84375 14.375 C 10.067718 13.705188 9.0743108 13.28125 7.96875 13.28125 C 5.5226069 13.28125 3.53125 15.272606 3.53125 17.71875 C 3.53125 20.164893 5.5226069 22.15625 7.96875 22.15625 C 9.046896 22.15625 10.013183 21.734063 10.78125 21.09375 L 23.09375 26.4375 C 23.446386 28.530834 25.275135 30.125 27.46875 30.125 C 29.914894 30.125 31.875 28.133643 31.875 25.6875 C 31.875 23.241357 29.914894 21.25 27.46875 21.25 C 26.23009 21.25 25.116306 21.774157 24.3125 22.59375 L 13.125 17.75 L 24.59375 13.0625 C 25.370124 13.733656 26.36195 14.1875 27.46875 14.1875 C 29.914894 14.1875 31.875 12.196143 31.875 9.75 C 31.875 7.3038569 29.914894 5.3125 27.46875 5.3125 z "
       transform="translate(0,1016.9291)"
       id="path2990" />
  </g>
</svg>
